X: 2235
T: Awakening, The
R: reel
M: 4/4
K: Aminor
|:ag|e2 dB cA A2|cAEA ceag|e2 dB dG G2|BGBd g2 ag|
e2 dB cA A2|cAEA cdeg|agef gedB|egdB A2:|
|:cd|ea a2 eAce|agef gedB|dg g2 dGBd|g2 fa gedg|
ea a2 eAce|agef g2 ab|agef gedB|egdB A2:|

